X:81
T:Father O'Grady's Visit To Bocca
R:reel
M:4/4
L:1/8
K:Dmaj
Adde fded | ABAG EAde | fded cAAG | EFGE DAde |
fded ABAG | EFGE ABde |fded cAAG | EFGE D3z :|
|:dcde f2ge | dged cAAF | G2GA GE~E2 | edcA GE~E2 |
Adde f2ge | dged cAA2 | fefa g2g2 | eage d3z :|

